resources/sort-ascending.svg

<svg width="24" height="24" fill="#f4f4f7">
  <path stroke="#555e70" stroke-linecap="round" stroke-linejoin="round" stroke-width="2" d="M3 4h13M3 8h9m-9 4h6m4 0 4-4m0 0 4 4m-4-4v12"/>
</svg>

<svg xmlns="http://www.w3.org/2000/svg" width="24" height="24" fill="#f4f4f7" viewBox="0 0 24 24"><path stroke="#555e70" stroke-linecap="round" stroke-linejoin="round" stroke-width="2" d="M3 4H16M3 8H12M3 12H9M13 12L17 8M17 8L21 12M17 8V20"/></svg>
